!!!COM:	Josquin des Pres?
**kern	**kern
*part2	*part1
*staff2	*staff1
*clefGv2	*clefG2
*k[]	*k[]
*M2/1	*M2/1
=1-	=1-
[0c	0g
=2	=2
0c_	1a
.	[1g
=3	=3
0c]	2g]
.	4a
.	4b
.	1cc
=4	=4
0d	2b
.	1a
.	4g
.	4f
=5	=5
[0e	1g
.	[1c
=6	=6
0e]	1c]
.	[1g
=7	=7
0c	2g]
.	4a
.	4b
.	1cc
=8	=8
[0d	2r
.	1f
.	4g
.	4a
=9	=9
0d]	2b
.	1a
.	4g
.	4f
=10	=10
1.c	1e
.	[1g
4B	.
4A	.
=11	=11
1.G	2g]
.	2f
.	1e
2A	.
=12	=12
1B	1d
[1c	1c
=13	=13
2c]	0d
4B	.
4A	.
1B	.
=14	=14
[0c	[0e
=15	=15
0c_	1e]
.	1c
=16	=16
0c]	0c
==	==
*-	*-
